X: 37
T:There Came A Young Man
% Nottingham Music Database
S:Trad, arr Phil Rowe
M:6/8
K:Am
E|"Am"ABA c2d|"Am"edc "D7"\
B2A|"G"GAG B2c|dge d
BG|"Am"ABA c2d|"Am"edc "E7"Bcd|"Am"e2A "E7"AB^G|"Am"
A3 -A2::B|"C"c2e g2a|gec gec|"G"G2B d2e|dge d
BG|"C"\
c2e g2a|"C"gec "E7"de^g|"Am"a2A "E7"AB^G|"Am"A3 -A2:|


